X:4
T:Minuet (Bach)
R:Minuet
C:J.S. Bach
M:3/4
L:1/8
Q:110
K:D
A2DEFG|A2D2D2|B2GABc|d2D2D2|G2AGFE|!F2GFED|E2DEFD|E2AGFE|
A2DEFG|A2D2D2|B2GABc|!d2D2D2|G2AGFE|F2GFED|E2FEDE|D6||

